source/img/icon-instagram.svg

<svg width="24" height="24" viewBox="0 0 24 24" fill="none" xmlns="http://www.w3.org/2000/svg">
<g clip-path="url(#clip0)">
<path d="M16 12V11.999C16 9.79005 14.209 7.99905 12 7.99905C9.791 7.99905 8 9.79005 8 11.999C8 14.208 9.791 15.999 12 15.999C13.104 15.999 14.104 15.551 14.828 14.828C15.551 14.127 16 13.146 16 12.06C16 12.039 16 12.018 15.999 11.997V12H16ZM18.16 12C18.148 15.379 15.406 18.114 12.025 18.114C8.637 18.114 5.89 15.367 5.89 11.979C5.89 8.59105 8.637 5.84405 12.025 5.84405C13.719 5.84405 15.253 6.53105 16.363 7.64105C17.472 8.72105 18.161 10.228 18.161 11.897C18.161 11.933 18.161 11.97 18.16 12.006V12.001V12ZM19.847 5.59405V5.59605C19.847 6.39105 19.202 7.03605 18.407 7.03605C17.612 7.03605 16.967 6.39105 16.967 5.59605C16.967 4.80105 17.612 4.15605 18.407 4.15605C18.805 4.15605 19.165 4.31705 19.425 4.57805C19.681 4.82905 19.84 5.17905 19.84 5.56605V5.59505V5.59405H19.847ZM12.007 2.15405L10.812 2.14605C10.088 2.14071 9.53834 2.14071 9.163 2.14605C8.78767 2.15138 8.285 2.16705 7.655 2.19305C7.07 2.21305 6.515 2.27105 5.972 2.36305L6.045 2.35305C5.62 2.42305 5.243 2.52305 4.882 2.65605L4.925 2.64205C3.881 3.06705 3.068 3.87905 2.653 4.89605L2.643 4.92305C2.524 5.24105 2.424 5.61805 2.359 6.00605L2.354 6.04305C2.272 6.51205 2.214 7.06705 2.195 7.63205L2.194 7.65305C2.168 8.28371 2.15234 8.78638 2.147 9.16105C2.14167 9.53571 2.14167 10.0854 2.147 10.81C2.15234 11.5347 2.155 11.933 2.155 12.005C2.155 12.077 2.15234 12.4754 2.147 13.2C2.14167 13.9247 2.14167 14.4744 2.147 14.849C2.15234 15.2237 2.168 15.7264 2.194 16.357C2.214 16.942 2.272 17.497 2.364 18.04L2.354 17.967C2.424 18.392 2.524 18.769 2.657 19.13L2.643 19.087C3.068 20.131 3.88 20.944 4.897 21.359L4.924 21.369C5.242 21.488 5.619 21.588 6.007 21.653L6.044 21.658C6.513 21.74 7.068 21.798 7.632 21.817L7.653 21.818C8.28367 21.844 8.78634 21.8597 9.161 21.865C9.53567 21.8704 10.0853 21.8704 10.81 21.865L11.998 21.841L13.193 21.849C13.917 21.8544 14.4667 21.8544 14.842 21.849C15.2173 21.8437 15.72 21.828 16.35 21.802C16.935 21.782 17.49 21.724 18.033 21.632L17.96 21.642C18.385 21.572 18.762 21.472 19.123 21.339L19.08 21.353C20.124 20.928 20.937 20.116 21.352 19.099L21.362 19.072C21.481 18.754 21.581 18.377 21.646 17.989L21.651 17.952C21.733 17.483 21.791 16.928 21.81 16.364L21.811 16.343C21.837 15.7124 21.8527 15.2097 21.858 14.835C21.8633 14.4604 21.8633 13.9107 21.858 13.186C21.8527 12.4614 21.85 12.063 21.85 11.991C21.85 11.919 21.8527 11.5207 21.858 10.796C21.8633 10.0714 21.8633 9.52171 21.858 9.14705C21.8527 8.77238 21.837 8.26971 21.811 7.63905C21.791 7.05405 21.733 6.49905 21.641 5.95605L21.651 6.02905C21.581 5.60405 21.481 5.22705 21.348 4.86605L21.362 4.90905C20.937 3.86505 20.125 3.05205 19.108 2.63705L19.081 2.62705C18.763 2.50805 18.386 2.40805 17.998 2.34305L17.961 2.33805C17.492 2.25605 16.937 2.19805 16.373 2.17905L16.352 2.17805C15.7213 2.15205 15.2187 2.13638 14.844 2.13105C14.4693 2.12571 13.9197 2.12571 13.195 2.13105L12.007 2.15405ZM24 12C24 14.3854 23.9733 16.0364 23.92 16.953C23.925 17.054 23.929 17.172 23.929 17.29C23.929 20.957 20.956 23.93 17.289 23.93C17.17 23.93 17.052 23.927 16.935 23.921L16.951 23.922C16.0343 23.9754 14.3833 24.002 11.998 24.002C9.61267 24.002 7.96167 23.9754 7.045 23.922C6.944 23.927 6.826 23.931 6.708 23.931C3.041 23.931 0.0680022 20.958 0.0680022 17.291C0.0680022 17.172 0.0710022 17.054 0.0770022 16.937L0.0760022 16.953C0.0226689 16.0364 -0.0039978 14.3854 -0.0039978 12C-0.0039978 9.61471 0.0226689 7.96371 0.0760022 7.04705C0.0710022 6.94605 0.0670022 6.82805 0.0670022 6.71005C0.0670022 3.04305 3.04 0.0700469 6.707 0.0700469C6.826 0.0700469 6.944 0.0730469 7.061 0.0790469L7.045 0.0780469C7.96167 0.0247135 9.61267 -0.00195312 11.998 -0.00195312C14.3833 -0.00195312 16.0343 0.0247135 16.951 0.0780469C17.052 0.0730469 17.17 0.0690469 17.288 0.0690469C20.955 0.0690469 23.928 3.04205 23.928 6.70905C23.928 6.82805 23.925 6.94605 23.919 7.06305L23.92 7.04705C23.9733 7.96305 24 9.61405 24 12Z" fill="#AEAEAE"/>
</g>
<defs>
<clipPath id="clip0">
<rect width="24" height="24" fill="white"/>
</clipPath>
</defs>
</svg>

<!--Generated by Fontisto--><svg viewBox="0 0 24 24" xmlns="http://www.w3.org/2000/svg"><path d="m16 12v-.001c0-2.209-1.791-4-4-4s-4 1.791-4 4 1.791 4 4 4c1.104 0 2.104-.448 2.828-1.171.723-.701 1.172-1.682 1.172-2.768 0-.021 0-.042-.001-.063v.003zm2.16 0c-.012 3.379-2.754 6.114-6.135 6.114-3.388 0-6.135-2.747-6.135-6.135s2.747-6.135 6.135-6.135c1.694 0 3.228.687 4.338 1.797 1.109 1.08 1.798 2.587 1.798 4.256 0 .036 0 .073-.001.109v-.005zm1.687-6.406v.002c0 .795-.645 1.44-1.44 1.44s-1.44-.645-1.44-1.44.645-1.44 1.44-1.44c.398 0 .758.161 1.018.422.256.251.415.601.415.988v.029-.001zm-7.84-3.44-1.195-.008q-1.086-.008-1.649 0t-1.508.047c-.585.02-1.14.078-1.683.17l.073-.01c-.425.07-.802.17-1.163.303l.043-.014c-1.044.425-1.857 1.237-2.272 2.254l-.01.027c-.119.318-.219.695-.284 1.083l-.005.037c-.082.469-.14 1.024-.159 1.589l-.001.021q-.039.946-.047 1.508t0 1.649.008 1.195-.008 1.195 0 1.649.047 1.508c.02.585.078 1.14.17 1.683l-.01-.073c.07.425.17.802.303 1.163l-.014-.043c.425 1.044 1.237 1.857 2.254 2.272l.027.01c.318.119.695.219 1.083.284l.037.005c.469.082 1.024.14 1.588.159l.021.001q.946.039 1.508.047t1.649 0l1.188-.024 1.195.008q1.086.008 1.649 0t1.508-.047c.585-.02 1.14-.078 1.683-.17l-.073.01c.425-.07.802-.17 1.163-.303l-.043.014c1.044-.425 1.857-1.237 2.272-2.254l.01-.027c.119-.318.219-.695.284-1.083l.005-.037c.082-.469.14-1.024.159-1.588l.001-.021q.039-.946.047-1.508t0-1.649-.008-1.195.008-1.195 0-1.649-.047-1.508c-.02-.585-.078-1.14-.17-1.683l.01.073c-.07-.425-.17-.802-.303-1.163l.014.043c-.425-1.044-1.237-1.857-2.254-2.272l-.027-.01c-.318-.119-.695-.219-1.083-.284l-.037-.005c-.469-.082-1.024-.14-1.588-.159l-.021-.001q-.946-.039-1.508-.047t-1.649 0zm11.993 9.846q0 3.578-.08 4.953c.005.101.009.219.009.337 0 3.667-2.973 6.64-6.64 6.64-.119 0-.237-.003-.354-.009l.016.001q-1.375.08-4.953.08t-4.953-.08c-.101.005-.219.009-.337.009-3.667 0-6.64-2.973-6.64-6.64 0-.119.003-.237.009-.354l-.001.016q-.08-1.375-.08-4.953t.08-4.953c-.005-.101-.009-.219-.009-.337 0-3.667 2.973-6.64 6.64-6.64.119 0 .237.003.354.009l-.016-.001q1.375-.08 4.953-.08t4.953.08c.101-.005.219-.009.337-.009 3.667 0 6.64 2.973 6.64 6.64 0 .119-.003.237-.009.354l.001-.016q.08 1.374.08 4.953z"/></svg>
